X:1305
T:The Highland Reel
P:Lady Hunter Blair's Reel
C:Gow's Collection
R:Reel (nx32)
B:RSCDS 13-5
Z:Anselm Lingnau <anselm@strathspey.org>
M:C|
L:1/8
K:Am
a|"Am"e2AA e2ea|"G"g2eg dGBG|"Am"e2AA e2eg|"D"^fd"Em"gB "Am"A2 Aa|
  "Am"e2AA e2ea|"G"g2eg dGBG|"Am"e2AA e2eg|"D"^fd"Em"gB "Am"A2 A||
c|"Am"A2EE ABcB|"G"GABc dedB|"Am"A2EE ABcd|"Em"e^fgB "Am"A2Ac|
  "Am"A2EE ABcB|"G"GABc dedB|"C"ecgc "G/B"dBgB|"Am"cA"E7"B^G "Am"A2A|]
